src/assets/duotone/ReceiptText.svg

<?xml version="1.0" encoding="UTF-8"?>
<svg width="24" height="24" viewBox="0 0 24 24" xmlns="http://www.w3.org/2000/svg">
 <path d="M22 6V8.42C22 10 21 11 19.42 11H16V4.01C16 2.9 16.91 2 18.02 2C19.11 2.01 20.11 2.45 20.83 3.17C21.55 3.9 22 4.9 22 6Z"/>
 <path d="m2 7v14c0 0.83 0.94001 1.3 1.6 0.8l1.71-1.28c0.4-0.3 0.96-0.26 1.32 0.1l1.66 1.67c0.39 0.39 1.03 0.39 1.42 0l1.68-1.68c0.35-0.35 0.91-0.39 1.3-0.09l1.71 1.28c0.66 0.49 1.6 0.02 1.6-0.8v-17c0-1.1 0.9-2 2-2h-12c-3 0-4 1.79-4 4v1z" opacity=".4"/>
 <path d="m12 9.75h-6c-0.41 0-0.75-0.34-0.75-0.75s0.34-0.75 0.75-0.75h6c0.41 0 0.75 0.34 0.75 0.75s-0.34 0.75-0.75 0.75z"/>
 <path d="m11.25 13.75h-4.5c-0.41 0-0.75-0.34-0.75-0.75s0.34-0.75 0.75-0.75h4.5c0.41 0 0.75 0.34 0.75 0.75s-0.34 0.75-0.75 0.75z"/>
</svg>

<svg width="24" height="24" viewBox="0 0 24 24"  xmlns="http://www.w3.org/2000/svg">
<path d="M22 6V8.42C22 10 21 11 19.42 11H16V4.01C16 2.9 16.91 2 18.02 2C19.11 2.01 20.11 2.45 20.83 3.17C21.55 3.9 22 4.9 22 6Z" />
<path opacity="0.4" d="M2 7V21C2 21.83 2.94001 22.3 3.60001 21.8L5.31 20.52C5.71 20.22 6.27 20.26 6.63 20.62L8.28999 22.29C8.67999 22.68 9.32001 22.68 9.71001 22.29L11.39 20.61C11.74 20.26 12.3 20.22 12.69 20.52L14.4 21.8C15.06 22.29 16 21.82 16 21V4C16 2.9 16.9 2 18 2H7H6C3 2 2 3.79 2 6V7Z" />
<path d="M12 9.75H6C5.59 9.75 5.25 9.41 5.25 9C5.25 8.59 5.59 8.25 6 8.25H12C12.41 8.25 12.75 8.59 12.75 9C12.75 9.41 12.41 9.75 12 9.75Z" />
<path d="M11.25 13.75H6.75C6.34 13.75 6 13.41 6 13C6 12.59 6.34 12.25 6.75 12.25H11.25C11.66 12.25 12 12.59 12 13C12 13.41 11.66 13.75 11.25 13.75Z" />
</svg>
